usr/share/icons/biglinux-icons-material/16/actions/view-financial-account-asset-closed.svg

<svg version="1.1" viewBox="0 0 16 16" xmlns="http://www.w3.org/2000/svg"><style type="text/css" id="current-color-scheme">.ColorScheme-NegativeText { color: #da4453; }.ColorScheme-Text { color: #363636; }</style>
    <style id="current-color-scheme" type="text/css">.ColorScheme-Text {
        color:#363636;
    }</style>
    <path d="m5.1210938 3 1 1h5.0703122l1.5 3h-3.5703122l1.0000002 1h2.878906v2.878906l1 1v-4.4980466l-2.191406-4.3808594h-6.6875002zm-2.0332032 2.2089844-1.0878906 2.1738281v4.6171875h1v2h2v-2h4.8789062l-1-1h-5.8789062v-3h2.8789062l-1-1h-1.5703124l0.5234374-1.046875-0.7441406-0.7441406zm0.9121094 3.7910156v1h1v-1h-1zm7.121094 0 0.878906 0.8789062v-0.8789062h-0.878906zm-0.121094 4.121094v0.878906h0.878906l-0.878906-0.878906z" fill="currentColor" class="ColorScheme-Text"/>
    <path d="M 2.7070312,2 2,2.7070312 13.292969,14 14,13.267578 Z" fill="currentColor" class="ColorScheme-NegativeText"/>
</svg>

<svg xmlns="http://www.w3.org/2000/svg" viewBox="0 0 16 16"><path fill="currentColor" d="m5.121 3 1 1h5.07l1.5 3h-3.57l1 1H13v2.879l1 1V7.38L11.809 3H5.12zM3.088 5.209 2 7.383V12h1v2h2v-2h4.879l-1-1H3V8h2.879l-1-1h-1.57l.523-1.047-.744-.744zM4 9v1h1V9H4zm7.121 0 .879.879V9h-.879zM11 13.121V14h.879L11 13.121z" style="color:#dedede"/><path fill="currentColor" d="M2.707 2 2 2.707 13.293 14l.707-.732Z" style="color:#da4453"/></svg>
